!!!!SEGMENT: offering-002.krn
!!!COM: Bach, Johann Sebastian
!!!CDT: 1685/03/31-1750/07/28
!!!OPR@@DE: Musicalisches Opfer
!!!OPR@EN: Musical Offering
!!!OTL: Ricarcare in C minor, a 6.
!!!ONB: Regis issu cantio et reliqua canonica arte resoluta
!!!SCA: BWV 1079
!!!voices: 6
!!!AGN: Ricercare
**kern	**kern	**kern	**kern	**kern	**kern
*part6	*part5	*part4	*part3	*part2	*part1
*staff6	*staff5	*staff4	*staff3	*staff2	*staff1
*clefF4	*clefC4	*clefC4	*clefC3	*clefC1	*clefG2
*mclefF4	*mclefGv2	*mclefGv2	*mclefG2	*mclefG2	*mclefG2
*k[b-e-a-]	*k[b-e-a-]	*k[b-e-a-]	*k[b-e-a-]	*k[b-e-a-]	*k[b-e-a-]
*c:	*c:	*c:	*c:	*c:	*c:
*M2/1	*M2/1	*M2/1	*M2/1	*M2/1	*M2/1
*met(c|)	*met(c|)	*met(c|)	*met(c|)	*met(c|)	*met(c|)
*mmet(c|)	*mmet(c|)	*mmet(c|)	*mmet(c|)	*mmet(c|)	*mmet(c|)
*MM170	*MM170	*MM170	*MM170	*MM170	*MM170
=1	=1	=1	=1	=1	=1
0r	0r	0r	2c	0r	0r
.	.	.	2e-	.	.
.	.	.	2g	.	.
.	.	.	2a-	.	.
=2	=2	=2	=2	=2	=2
0r	0r	0r	2Bn	0r	0r
.	.	.	4r	.	.
.	.	.	4g	.	.
.	.	.	2f#X	.	.
.	.	.	2fn	.	.
=3	=3	=3	=3	=3	=3
0r	0r	0r	2en	0r	0r
.	.	.	[2e-X	.	.
.	.	.	4e-]	.	.
.	.	.	4d	.	.
.	.	.	4d-X	.	.
.	.	.	4c	.	.
=4	=4	=4	=4	=4	=4
0r	0r	0r	4Bn	0r	0r
.	.	.	4G	.	.
.	.	.	4c	.	.
.	.	.	4f	.	.
.	.	.	2e-	.	.
.	.	.	2d	.	.
=5	=5	=5	=5	=5	=5
0r	0r	0r	4c	2g	0r
.	.	.	8e-L	.	.
.	.	.	16dL	.	.
.	.	.	16cJJ	.	.
.	.	.	4d	2b-	.
.	.	.	4g	.	.
=.	.	.	4e-	2cc	.
.	.	.	4a-	.	.
.	.	.	4g	2ee-	.
.	.	.	[4cc	.	.
!!LO:LB:g=original
=6	=6	=6	=6	=6	=6
0r	0r	0r	4cc]	2f#X	0r
.	.	.	8b-L	.	.
.	.	.	8anJ	.	.
.	.	.	[2b-	4r	.
.	.	.	.	4dd	.
.	.	.	4b-]	2cc#X	.
.	.	.	4an	.	.
.	.	.	4en	2ccn	.
.	.	.	4f#X	.	.
=7	=7	=7	=7	=7	=7
0r	0r	0r	4g	2bn	0r
.	.	.	4d	.	.
.	.	.	4r	[2b-X	.
.	.	.	8gL	.	.
.	.	.	8fnJ	.	.
.	.	.	8e-XL	4b-]	.
.	.	.	8dJ	.	.
.	.	.	4c	4an	.
.	.	.	4r	4a-X	.
.	.	.	4e-	4g	.
=8	=8	=8	=8	=8	=8
0r	0r	0r	4.d	4f#X	0r
.	.	.	.	4d	.
.	.	.	8c	.	.
.	.	.	4B-	4g	.
.	.	.	4An	4cc	.
.	.	.	4G	2b-	.
.	.	.	4g	.	.
.	.	.	4c	2an	.
.	.	.	4d	.	.
=9	=9	=9	=9	=9	=9
0r	2C	0r	2e-	4g	0r
.	.	.	.	8a-XL	.
.	.	.	.	16gL	.
.	.	.	.	16fJJ	.
.	2E-	.	4r	4g	.
.	.	.	4e-	4cc	.
.	2G	.	4d	4b-	.
.	.	.	4g	4ee-	.
.	2A-	.	4e-	4cc	.
.	.	.	4a-	[4ff	.
=10	=10	=10	=10	=10	=10
0r	2BBn	0r	4g	4ff]	0r
.	.	.	4G	8ee-L	.
.	.	.	.	8ddJ	.
.	4r	.	4c	[2ee-	.
.	4G	.	4B-	.	.
.	2F#X	.	2An	4ee-]	.
.	.	.	.	4dd	.
.	2Fn	.	2d	4an	.
.	.	.	.	4bn	.
!!LO:LB:g=original
=11	=11	=11	=11	=11	=11
0r	2En	0r	4G	4cc	0r
.	.	.	8gL	4g	.
.	.	.	8a-J	.	.
.	[2E-X	.	8gL	4r	.
.	.	.	8f	.	.
.	.	.	8e-	8ccL	.
.	.	.	8dJ	8b-XJ	.
.	4E-]	.	4c	8anL	.
.	.	.	.	8gJ	.
.	4D	.	8dL	4f	.
.	.	.	8enJ	.	.
.	4D-X	.	[2f	4r	.
.	4C	.	.	4a-X	.
=12	=12	=12	=12	=12	=12
0r	4BBn	0r	4f]	4.g	0r
.	4GG	.	4Bn	.	.
.	.	.	.	8f	.
.	4C	.	4c	8e-L	.
.	.	.	.	8d	.
.	4F	.	4A-	8c	.
.	.	.	.	8BnJ	.
.	2E-	.	2G	4c	.
.	.	.	.	4cc	.
.	2D	.	4An	[2f	.
.	.	.	4Bn	.	.
=13	=13	=13	=13	=13	=13
0r	4C	2G	4c	4f]	0r
.	8E-L	.	4cc	4e-	.
.	16DL	.	.	.	.
.	16CJJ	.	.	.	.
.	4D	2B-	8fL	4r	.
.	.	.	8e-J	.	.
.	4G	.	4d	4b-	.
.	4E-	2c	4g	4ee-	.
.	4A-	.	4f#X	8ddL	.
.	.	.	.	8ccJ	.
.	4G	2e-	2g	4bn	.
.	[4c	.	.	4cc	.
=14	=14	=14	=14	=14	=14
0r	4c]	2F#X	4an	2.dd	0r
.	8B-L	.	8gL	.	.
.	8AnJ	.	8f#XJ	.	.
.	[2B-	4r	[2g	.	.
.	.	4d	.	8eenL	.
.	.	.	.	8ffJ	.
.	4B-]	2c#X	4g]	4een	.
.	4An	.	4an	4ff#X	.
.	4En	2cn	4b-	4gg	.
.	4F#X	.	[4a	4aan	.
!!LO:LB:g=original
=15	=15	=15	=15	=15	=15
0r	4G	2Bn	4anX]	2.dd	0r
.	4D	.	8gL	.	.
.	.	.	8f#XJ	.	.
.	4r	[2B-X	[2g	.	.
.	8GL	.	.	8ee-XL	.
.	8FnJ	.	.	8ddJ	.
.	8E-XL	4B-]	4g]	[1cc	.
.	8DJ	.	.	.	.
.	4C	4An	8anL	.	.
.	.	.	8gJ	.	.
.	4r	4A-X	4f#X	.	.
.	4E-	4G	4g	.	.
=16	=16	=16	=16	=16	=16
0r	4.D	4F#X	2an	4cc]	0r
.	.	4D	.	4f#X	.
.	8C	.	.	.	.
.	4BB-	4G	4d	4g	.
.	4AAn	4c	8enL	4an	.
.	.	.	8f#XJ	.	.
.	4GG	2B-	8gL	8b-L	.
.	.	.	8f	8anJ	.
.	4G	.	8e-	2g	.
.	.	.	8dJ	.	.
.	4C	2An	4e-	.	.
.	4D	.	8dL	4f#X	.
.	.	.	8cJ	.	.
=17	=17	=17	=17	=17	=17
0r	2E-	4G	4B-	2g	0r
.	.	2c	4G	.	.
.	2En	.	[2g	2r	.
.	.	4B-	.	.	.
.	2.F	4An	4g]	4r	.
.	.	2d	8fL	4f	.
.	.	.	8gJ	.	.
.	.	.	2a-X	[2ff	.
.	8E-L	4c	.	.	.
.	8DJ	.	.	.	.
=18	=18	=18	=18	=18	=18
0r	0G	4Bn	2.g	4ff]	0r
.	.	8cL	.	2ee-	.
.	.	8dJ	.	.	.
.	.	[2c	.	.	.
.	.	.	8fL	8ddL	.
.	.	.	8e-J	8ccJ	.
.	.	4c]	2.f	2.dd	.
.	.	8BnL	.	.	.
.	.	8AnJ	.	.	.
.	.	2B	.	.	.
.	.	.	8gL	8ee-L	.
.	.	.	8fJ	8ddJ	.
!!LO:LB:g=original
=19	=19	=19	=19	=19	=19
0r	2.A-	4c	4e-	2cc	2cc
.	.	(8dL	(8fL	.	.
.	.	16cL	16e-L	.	.
.	.	16BnJJ)	16dJJ)	.	.
.	.	[2c	4c	8r	2ee-
.	.	.	.	8ccL	.
.	8GL	.	4r	8b-	.
.	8FJ	.	.	8a-J	.
.	2E-	4c]	4r	4g	2gg
.	.	4e-	2g	2cc	.
.	2F	4c	.	.	2aa-
.	.	[4f	8fL	[4dd	.
.	.	.	8e-J	.	.
=20	=20	=20	=20	=20	=20
0r	2G	4f]	4d	4dd]	2bn
.	.	8e-L	4Bn	8ggL	.
.	.	8dJ	.	8ffJ	.
.	4c	[2e-	4g	8ee-L	4r
.	.	.	.	8dd	.
.	4An	.	4r	8cc	4gg
.	.	.	.	8b-XJ	.
.	4d	4e-]	2r	4an	2ff#X
.	2D	4d	.	8bnL	.
.	.	.	.	8ccJ	.
.	.	4An	4r	[2dd	2ffn
.	4G	4Bn	[4g	.	.
=21	=21	=21	=21	=21	=21
0r	4c	4c	4g]	4dd]	2een
.	2C	4G	2g	8ccL	.
.	.	.	.	8bnJ	.
.	.	[2c	.	[2cc	[2ee-X
.	8DL	.	8fL	.	.
.	8E-J	.	8gJ	.	.
.	[1F	4c]	8a-L	8ccL]	4ee-]
.	.	.	8gJ	8b-J	.
.	.	8dL	2f	2a-X	4dd
.	.	8e-J	.	.	.
.	.	4f	.	.	4dd-X
.	.	4A-	4a-	4f	4cc
=22	=22	=22	=22	=22	=22
0r	4F]	2.G	4d	4g	4bn
.	8E-L	.	8cL	4r	4g
.	8DJ	.	8BnJ	.	.
.	4E-	.	2c	4r	4cc
.	4A-	4F	.	8ccL	4ff
.	.	.	.	8bnJ	.
.	4G	4G	4.g	2.cc	2ee-
.	8B-L	4c	.	.	.
.	8AnJ	.	8f#X	.	.
.	[2B-	4d	2g	.	2dd
.	.	8enL	.	8b-L	.
.	.	8fJ	.	8a-J	.
!!LO:LB:g=original
=23	=23	=23	=23	=23	=23
0r	2B-]	4en	1c	4g	2.cc
.	.	8dL	.	8fL	.
.	.	8enJ	.	8gJ	.
.	1A-X	[2f	.	4a-	.
.	.	.	.	8gL	8b-L
.	.	.	.	8a-J	8ccJ
.	.	4f]	2B-	1b-	4dd
.	.	8e-L	.	.	8ccL
.	.	8fJ	.	.	8ddJ
.	[2G	4.g	2r	.	4ee-
.	.	.	.	.	4dd
.	.	8f	.	.	.
=24	=24	=24	=24	=24	=24
0r	2G]	8e-L	2r	1a-	4cc
.	.	8c	.	.	.
.	.	8Bn	.	.	8ddL
.	.	8cJ	.	.	8ee-J
.	1F	2d	4.f	.	8ddL
.	.	.	.	.	8cc
.	.	.	.	.	8bn
.	.	.	8e-	.	8ccJ
.	.	[1G	2d	4.g	8bnL
.	.	.	.	.	8ddJ
.	.	.	.	.	2gg
.	.	.	.	8bn	.
.	4E-	.	[2g	[2cc	.
.	8DL	.	.	.	8ffL
.	8CJ	.	.	.	8ee-J
=25	=25	=25	=25	=25	=25
2GG	1D	1G_	4g]	2cc]	[1dd
.	.	.	4d	.	.
2BB-	.	.	4g	[2b-X	.
.	.	.	4f	.	.
2C	2E-	4G]	2e-	2.b-]	2dd]
.	.	8AnL	.	.	.
.	.	8B-J	.	.	.
2E-	2G	4c	2r	.	[2cc
.	.	4e-	.	8anL	.
.	.	.	.	8gJ	.
=26	=26	=26	=26	=26	=26
2FF#X	4D	1d	0r	2.an	2cc]
.	8EnL	.	.	.	.
.	8F#XJ	.	.	.	.
4r	[2G	.	.	.	[2b-
4D	.	.	.	8gL	.
.	.	.	.	8f#XJ	.
2C#X	4G]	4en	.	2.g	2b-]
.	8F#XL	2e-X	.	.	.
.	8GJ	.	.	.	.
2Cn	2An/	.	.	.	[2an
.	.	8dL	.	8f#XL	.
.	.	8cJ	.	8enJ	.
!!LO:LB:g=original
=27	=27	=27	=27	=27	=27
2BBn	2.D	4d	4r	4f#X	4a]
.	.	4Bn	2d	4d	8gL
.	.	.	.	.	8f#XJ
[2BB-X	.	[2G	.	[2g	4g
.	8E-L	.	8cL	.	8anL
.	8DJ	.	8dJ	.	8b-J
4BB-]	2C	4G]	1e-	4g]	[1cc
4AAn	.	4F#X	.	8anL	.
.	.	.	.	8gJ	.
4AA-X	2r	2r	.	4f#X	.
4GG	.	.	.	4g	.
=28	=28	=28	=28	=28	=28
4FF#X	4r	2r	2.d	[2an	4cc]
4DD	2D	.	.	.	8ddL
.	.	.	.	.	8ccJ
4GG	.	4r	.	8a]	4b-
.	.	.	.	4g	.
4C	4E-	2An	4c	.	4an
.	.	.	.	8f#X	.
2BB-	4D	.	4d	2g	2b-
.	8E-L	2G	8cL	.	.
.	8DJ	.	8dJ	.	.
2AAn	2C	.	4e-	2an	[2cc
.	.	4F#X	8dL	.	.
.	.	.	8cJ	.	.
=29	=29	=29	=29	=29	=29
1GG	2D	4G	2g	2d	4cc]
.	.	4D	.	.	4b-
.	4r	[2E-	1b-	2r	[2gg
.	4BB-	.	.	.	.
1AAn	1C	4E-]	.	2r	2gg]
.	.	4En	.	.	.
.	.	[2F	[2an	[2cc	4ff
.	.	.	.	.	4ee-
=30	=30	=30	=30	=30	=30
1BB-	1D	4F]	2a]	2cc]	[1dd
.	.	4F#X	.	.	.
.	.	[2G	4g	[2b-	.
.	.	.	4f	.	.
1C	1E-	4G]	[1e-	2b-]	4dd]
.	.	4G	.	.	4dd-X
.	.	[2A-X	.	4a-	[2cc
.	.	.	.	4g	.
=31	=31	=31	=31	=31	=31
1D	1F	4A-]	2e-]	[1f	2cc]
.	.	4An	.	.	.
.	.	[2B-	1d	.	4b-
.	.	.	.	.	4a-
[1E-	2.G	4B-]	.	2f]	2.g
.	.	4Bn	.	.	.
.	.	4c	[2c	4e-	.
.	4C	4B-X	.	8fL	8anL
.	.	.	.	8gJ	8b-J
!!LO:LB:g=original
=32	=32	=32	=32	=32	=32
2E-]	1F	2An	2c]	2f	4cc
.	.	.	.	.	8b-L
.	.	.	.	.	8ccJ
1D	.	4B-	2f	[2b-	4dd
.	.	4A-X	.	.	8ccL
.	.	.	.	.	8ddJ
.	1E-	2G	4.g	4b-]	1ee-
.	.	.	.	4bn	.
.	.	.	8f	.	.
[2C	.	4A-/	4e-	2cc	.
.	.	4G	8fL	.	.
.	.	.	8gJ	.	.
=33	=33	=33	=33	=33	=33
2C]	2.D	4F	2a-	[1dd	1ff
.	.	8E-L	.	.	.
.	.	8FJ	.	.	.
2BBn	.	[2G	[2g	.	.
.	8CL	.	.	.	.
.	8DJ	.	.	.	.
1C	2.E-	4G]	2.g]	2dd]	[1ee-
.	.	4G	.	.	.
.	.	[2A-	.	[2cc	.
.	8DL	.	8a-L	.	.
.	8E-J	.	8gJ	.	.
=34	=34	=34	=34	=34	=34
1D	2.F	4A-]	[1f	2cc]	2ee-]
.	.	4An	.	.	.
.	.	[2B-	.	4b-X	1dd
.	8E-L	.	.	4a-X	.
.	8FJ	.	.	.	.
1E-	2.G	4B-]	2f]	[1g	.
.	.	4Bn	.	.	.
.	.	[2c	[2e-	.	4cc
.	8FL	.	.	.	4b-
.	8GJ	.	.	.	.
=35	=35	=35	=35	=35	=35
1F	2.A-/	4c]	2e-]	4g]	2a-
.	.	4c	.	4f	.
.	.	[2d	2d	1ff	1aa-
.	8GL	.	.	.	.
.	8A-J	.	.	.	.
1G	2.B-	4d]	[1b-	.	.
.	.	4d	.	.	.
.	.	[2e-	.	4ee-	[2gg
.	8A-L	.	.	4dd-X	.
.	8B-J	.	.	.	.
=36	=36	=36	=36	=36	=36
[1A-	2c	4e-]	2b-]	1cc	2gg]
.	.	4e-	.	.	.
.	2F	[2f	4a-	.	4ff
.	.	.	4g	.	4ee-
2A-]	1B-	2f]	2f	1b-	4dd
.	.	.	.	.	8ccL
.	.	.	.	.	8ddJ
[2G	.	4e-	4g	.	[2ee-
.	.	4d	8fL	.	.
.	.	.	8gJ	.	.
!!LO:LB:g=original
=37	=37	=37	=37	=37	=37
2G]	2.A-	1c	1a-	2.cc	4ee-]
.	.	.	.	.	8ffL
.	.	.	.	.	8ggJ
4F	.	.	.	.	1aa-
4E-	4G	.	.	8ddL	.
.	.	.	.	8ee-J	.
2D	4F	1B-	4r	2ff	.
.	8E-L	.	2b-	.	.
.	8FJ	.	.	.	.
2E-	[2G	.	.	[2ee-	2gg
.	.	.	8ccL	.	.
.	.	.	8dd-XJ	.	.
=38	=38	=38	=38	=38	=38
1AA-	4G]	[1A-	1cc	4ee-]	1ccc
.	4C	.	.	8ffL	.
.	.	.	.	8ggJ	.
.	[2F	.	.	4ff	.
.	.	.	.	4ee-	.
[1BB-	2F]	2A-]	[1b-	2dd	4ff
.	.	.	.	.	2bb-
.	2E-	4G	.	[2ee-	.
.	.	4A-/	.	.	8aa-L
.	.	.	.	.	8ggJ
=39	=39	=39	=39	=39	=39
1BB-]	1F	1B-	1b-_	2ee-]	4ff
.	.	.	.	.	4gg
.	.	.	.	2dd	[2aa-
2EE-	2E-	2r	2b-]	2ee-	4aa-]
.	.	.	.	.	4gg
2r	2r	[2e-	2r	2r	2r
=40	=40	=40	=40	=40	=40
0r	0r	4e-]	2.f	1r	0r
.	.	4d	.	.	.
.	.	[2d-X	.	.	.
.	.	.	4b-	.	.
.	.	4d-]	2.e-	2r	.
.	.	4c	.	.	.
.	.	2c-X	.	[2ee-	.
.	.	.	4a-	.	.
=41	=41	=41	=41	=41	=41
0r	0r	2.B-	4g	4ee-]	2r
.	.	.	8fL	4dd	.
.	.	.	8e-J	.	.
.	.	.	4f	[2dd-X	[2bb-
.	.	4e-	4g	.	.
.	.	2.A-	4e-	4dd-]	4bb-]
.	.	.	8fL	4cc	4aa-
.	.	.	8g-XJ	.	.
.	.	.	4f	2cc-X	[2aa-
.	.	4F	4e-	.	.
!!LO:LB:g=original
=42	=42	=42	=42	=42	=42
0r	1r	[1B-	2d	2.b-	4aa-]
.	.	.	.	.	4gg
.	.	.	2e-	.	2gg-X
.	.	.	.	[4ee-	.
.	2r	4B-]	2.f	4ee-]	2.ff
.	.	4c	.	8ddL	.
.	.	.	.	8ccJ	.
.	[2B-	2d-X	.	2b-	.
.	.	.	8enL	.	4bb-
.	.	.	8fJ	.	.
=43	=43	=43	=43	=43	=43
2r	4B-]	2.c	4g	2.cc	2een
.	4An	.	8fL	.	.
.	.	.	8gJ	.	.
[2F	2A-X	.	2a-	.	2ff
.	.	8d-XL	.	8b-L	.
.	.	8cJ	.	8ccJ	.
4F]	2G	2B-	2b-	2dd-X	2gg
4En	.	.	.	.	.
[2E-X	2G-X	2c	2r	4cc	2aan
.	.	.	.	8dd-XL	.
.	.	.	.	8ee-J	.
=44	=44	=44	=44	=44	=44
4E-]	1F	1B-	4r	2.ff	[1bb-
4D	.	.	2b-	.	.
2D-X	.	.	.	.	.
.	.	.	8ccL	8ee-L	.
.	.	.	8dd-XJ	8ffJ	.
2C	4E-	1c	2.ee-	2gg-X	2bb-]
.	8DL	.	.	.	.
.	8E-J	.	.	.	.
2F	[2F	.	.	[2ff	2aan
.	.	.	8ddL	.	.
.	.	.	8ccJ	.	.
=45	=45	=45	=45	=45	=45
2BB-	2F]	2B-	2dd	2.ff]	4bb-
.	.	.	.	.	4ff
2D	2r	2r	2r	.	[2bb-
.	.	.	.	8ee-L	.
.	.	.	.	8ddJ	.
2F	2F	4r	1r	2cc	4bb-]
.	.	4c	.	.	2aa-X
2r	2A-	[2f	.	2r	.
.	.	.	.	.	8bb-L
.	.	.	.	.	8aa-J
=46	=46	=46	=46	=46	=46
0r	4.c	4f]	4r	2cc	2gg
.	.	2e-	4g	.	.
.	8B-	.	.	.	.
.	8A-L	.	[2cc	2ee-	2r
.	8GJ	.	.	.	.
.	4A-	8dL	.	.	.
.	.	8cJ	.	.	.
.	4.G	2.d	4cc]	4gg	1r
.	.	.	2b-	4dd	.
.	8F	.	.	.	.
.	2E-	.	.	[2gg	.
.	.	8e-L	8ccL	.	.
.	.	8d-XJ	8b-J	.	.
!!LO:LB:g=original
=47	=47	=47	=47	=47	=47
1r	8FL	4.c	4.a-	4gg]	1r
.	8GJ	.	.	.	.
.	2A-/	.	.	2ff	.
.	.	8Bn	8g	.	.
.	.	4c	4a-	.	.
.	4F	4dn	8b-L	8ggL	.
.	.	.	8a-J	8ffJ	.
2C	2G	4e-	4g	4ee-	4r
.	.	4r	4r	2ee-	4gg
2E-	2r	2r	2r	.	[2ccc
.	.	.	.	8ffL	.
.	.	.	.	8ee-J	.
=48	=48	=48	=48	=48	=48
[1G	2G	2B-	0r	4dd	4ccc]
.	.	.	.	4.gg	2bb-
.	2B-	2d	.	.	.
.	.	.	.	8ffL	.
.	.	.	.	8ee-	8cccL
.	.	.	.	8ddJ	8bb-J
4G]	2c	4e-	.	4cc	4aan
4F	.	4r	.	4ff	2aa-X
2E-	2e-	4r	.	4b-	.
.	.	4G	.	[4cc	4gg
=49	=49	=49	=49	=49	=49
[0D	2F#X	4d	0r	4cc]	4aan
.	.	4An	.	8ddL	8bb-L
.	.	.	.	8ccJ	8aaJ
.	4r	[2B-	.	4b-	[2gg
.	4d	.	.	4g	.
.	2c#X	2B-]	.	2een	4gg]
.	.	.	.	.	8aanL
.	.	.	.	.	8ggJ
.	2cn	4An	.	4r	4ff#X
.	.	8GL	.	[4an	4aa
.	.	8F#XJ	.	.	.
=50	=50	=50	=50	=50	=50
2.D]	2Bn	[2G	4r	4a]	2.dd
.	.	.	4d	8gL	.
.	.	.	.	8f#XJ	.
.	[2B-X	8GL]	[2g	4g	.
.	.	8F#X	.	.	.
8EnL	.	8G	.	4r	8cc#XL
8DJ	.	8B-J	.	.	8ddJ
2C#X	4B-]	2En	4g]	1r	2.een
.	4An	.	8anL	.	.
.	.	.	8b-J	.	.
[2Cn	4A-X	2r	4cc	.	.
.	4G	.	8ddL	.	8ff#XL
.	.	.	8ee-XJ	.	8ggJ
!!LO:LB:g=original
=51	=51	=51	=51	=51	=51
2C]	4F#X	4r	2.dd	4r	4aan
.	4D	4An	.	4an	8ggL
.	.	.	.	.	8ff#XJ
4BB-	4G	4D	.	4b-	1gg
4C	4c	[4G	4ee-	8gL	.
.	.	.	.	8aJ	.
1D	2B-	8GL>]	4dd	8b-L	.
.	.	8An	.	8ccJ	.
.	.	8B-	4g	[4dd	.
.	.	8GJ	.	.	.
.	2An	2d	8anL	2dd_	2ff#X
.	.	.	8b-J	.	.
.	.	.	[4cc	.	.
=52	=52	=52	=52	=52	=52
2GG	2G	2r	4cc]	4dd]	2gg
.	.	.	4b-	4g	.
2r	2r	4r	2r	[2ee-	2gg
.	.	4G	.	.	.
1r	1r	2.An	1r	8ee-L]	2ff#X
.	.	.	.	8dd	.
.	.	.	.	8cc	.
.	.	.	.	8bnJ	.
.	.	.	.	4cc	[2ffn
.	.	4Bn	.	4dd	.
=53	=53	=53	=53	=53	=53
0r	0r	4c	2r	4.g	4ff]
.	.	4G	.	.	8eenL
.	.	.	.	8b-X	8ddJ
.	.	2c	4r	8a-XL	8eeL
.	.	.	.	8g	8ggJ
.	.	.	4c	8f	[4aa-X
.	.	.	.	8enJ	.
.	.	2Bn	2.d	8fL	8aa-L]
.	.	.	.	8gJ	8gg
.	.	.	.	2a-	8ff
.	.	.	.	.	8eenJ
.	.	[2B-X	.	.	4ff
.	.	.	4en	4g	4gg
=54	=54	=54	=54	=54	=54
0r	2r	4B-]	4f	4f	4cc
.	.	8AnL	4c	4r	8ffL
.	.	8GJ	.	.	8ee-XJ
.	2F	8AL	2f	2r	8dd-XL
.	.	8cJ	.	.	8cc
.	.	[4d-X	.	.	8b-
.	.	.	.	.	8anJ
.	2.G	8d-L]	2en	1r	8b-L
.	.	8c	.	.	8ccJ
.	.	8B-	.	.	2dd-X
.	.	8AnJ	.	.	.
.	.	4B-	[2e-X	.	.
.	4An	[4c	.	.	4cc
!!LO:LB:g=original
=55	=55	=55	=55	=55	=55
0r	4B-	4c]	4e-]	2r	4f
.	4F	8B-L	8dL	.	4r
.	.	8A-XJ	8cJ	.	.
.	2B-	8G-XL	8dL	4r	2r
.	.	8F	8fJ	.	.
.	.	8E-	[4g-X	4b-	.
.	.	8DJ	.	.	.
.	2An	8E-L	8g-L]	2.cc	1r
.	.	8FJ	8f	.	.
.	.	2G-X	8e-	.	.
.	.	.	8dJ	.	.
.	[2A-X	.	4e-	.	.
.	.	4F	4f	4dd	.
=56	=56	=56	=56	=56	=56
0r	4A-]	[1E-	4B-	4ee-	2r
.	8GL	.	8ee-L	4b-	.
.	8FJ	.	8dd-XJ	.	.
.	8GL	.	8cc-XL	2ee-	2ee-
.	8B-J	.	8b-	.	.
.	[4c-X	.	8a-	.	.
.	.	.	8gJ	.	.
.	8c-L]	2.E-]	8a-L	2ddn	2.ff
.	8B-	.	8b-J	.	.
.	8A-	.	2cc-X	.	.
.	8GJ	.	.	.	.
.	4A-	.	.	[2dd-X	.
.	4B-	4BB-	4b-	.	4gg
=57	=57	=57	=57	=57	=57
2r	4E-	4C	4a-	4dd-]	4aa-
.	8A-L	4AA-	4r	8ccL	4ee-
.	8B-J	.	.	8dd-XJ	.
2C	8A-L	4A-	2r	8ee-L	2ccc
.	8G	.	.	8ggJ	.
.	8F	4r	.	[4aa-	.
.	8EnJ	.	.	.	.
2.D	8FL	2r	1r	8aa-L]	2bbn
.	8GJ	.	.	8gg	.
.	2A-	.	.	8ff	.
.	.	.	.	8eenJ	.
.	.	4r	.	4ff	[2bb-X
4En	4G	[4c	.	4gg	.
=58	=58	=58	=58	=58	=58
[1F	2F	8cL]	2f	2cc	4bb-]
.	.	8B-	.	.	.
.	.	8c	.	.	[4aa-
.	.	8d-XJ	.	.	.
.	2r	8cL	2a-	2r	8aa-]L
.	.	8B-	.	.	8gg
.	.	8A-	.	.	8ff
.	.	8GJ	.	.	8eenJ
8FL]	1r	2.A-	2cc	4r	1ff
8E-X	.	.	.	.	.
8D-X	.	.	.	2cc	.
8CJ	.	.	.	.	.
4BB-	.	.	2dd-X	.	.
[4B-	.	8GL	.	8b-L	.
.	.	8FJ	.	8a-J	.
!!LO:LB:g=original
=59	=59	=59	=59	=59	=59
8B-L]	4r	[2c	2en	8gL	2r
8A-	.	.	.	8a-J	.
8G	8B-L	.	.	[4b-	.
8FJ	8A-J	.	.	.	.
4En	4G	4c]	4r	8b-L]	4r
.	.	.	.	8gg	.
4F	8A-L	8FL	4cc	8ff	[4aa-
.	8GJ	8GJ	.	8eenJ	.
2.D	8FL	4A-	2bn	8ffL	8aa-L]
.	8EnJ	.	.	8ggJ	8gg
.	2F	4r	.	2aa-	8ff
.	.	.	.	.	8eenJ
.	.	4r	2b-X	.	4ff
4En	[4c	8r	.	[4gg	4gg
.	.	8G	.	.	.
=60	=60	=60	=60	=60	=60
4.F	8cL]	8AnL	2an	4gg]	[1cc
.	8d-X	8B-J	.	.	.
.	8c	2c	.	4.ff	.
8G	8B-J	.	.	.	.
4A-	4c	.	[2a-X	.	.
.	.	.	.	8ee-XL	.
4F	4A-	[4f	.	8dd-X	.
.	.	.	.	8ccJ	.
[1B-	8B-L	4f]	4a-]	1dd-X	4cc]
.	8c	.	.	.	.
.	8d-X	4B-	4g	.	8b-L
.	8e-J	.	.	.	8ccJ
.	4d-X	2r	4g-X	.	8b-L
.	.	.	.	.	8a-
.	4B-	.	4f	.	8g
.	.	.	.	.	8a-J
=61	=61	=61	=61	=61	=61
8B-L]	[1c	4r	4en	[1cc	2g
8G	.	.	.	.	.
8c	.	4g	4c	.	.
8B-J	.	.	.	.	.
8A-L	.	4a-	4f	.	4r
8G	.	.	.	.	.
8F	.	4g	4b-	.	[4gg
8EnJ	.	.	.	.	.
8FL	4c]	4.c	2a-	4cc]	4gg]
8E-	.	.	.	.	.
8D-X	4F	.	.	2dd-X	2ff
8CJ	.	16B-LL	.	.	.
.	.	16A-JJ	.	.	.
4BB-	4G	[2B-	2g	.	.
4C	[4c	.	.	[4cc	4een
=62	=62	=62	=62	=62	=62
8FL	4c]	4B-]	2f	4cc]	2ff
8G	.	.	.	.	.
8A-	4r	4A-	.	4cc	.
8GJ	.	.	.	.	.
8FL	2r	2r	2r	4a-	2ff
8E-	.	.	.	.	.
8Dn	.	.	.	4f	.
8CJ	.	.	.	.	.
1BB-	8r	1r	4r	2a-	2ddn
.	8CL	.	.	.	.
.	8D	.	4f	.	.
.	8E-J	.	.	.	.
.	8FL	.	4d	2r	2b-
.	8G	.	.	.	.
.	8A-	.	4B-	.	.
.	8FJ	.	.	.	.
!!LO:LB:g=original
=63	=63	=63	=63	=63	=63
8r	4G	0r	2d-X	4r	2r
8A-L	.	.	.	.	.
8G	4r	.	.	4b-	.
8FJ	.	.	.	.	.
8E-L	2r	.	2r	4g	2ee-
8D-X	.	.	.	.	.
8C	.	.	.	4e-	.
8BB-J	.	.	.	.	.
1AA-	8r	.	4r	2g-X	2cc
.	8BB-L	.	.	.	.
.	8C	.	4e-	.	.
.	8D-XJ	.	.	.	.
.	8E-L	.	4c	[2e-	2a-
.	8F	.	.	.	.
.	8G-X	.	4A-	.	.
.	8E-J	.	.	.	.
=64	=64	=64	=64	=64	=64
4AAn	[1F	8r	2c	2e-]	0r
.	.	8GL	.	.	.
4C	.	8An	.	.	.
.	.	8B-J	.	.	.
4AA	.	8cL	2r	4r	.
.	.	8d-X	.	.	.
4FF	.	8e-	.	[4cc	.
.	.	8cJ	.	.	.
4BB-	2F]	[1d-X	1r	8ccL]	.
.	.	.	.	8f	.
4D-X	.	.	.	8g	.
.	.	.	.	8anJ	.
4BB-	[2Gn	.	.	8b-L	.
.	.	.	.	8cc	.
4GG	.	.	.	8dd-X	.
.	.	.	.	8b-J	.
=65	=65	=65	=65	=65	=65
4C	4G]	4d-]	8r	[1ee-	0r
.	.	.	8e-L	.	.
4E-	2E-	8cL	8f	.	.
.	.	8B-J	8gJ	.	.
4C	.	4A-	8a-L	.	.
.	.	.	8b-	.	.
4AA-X	[4A-/	4r	8cc	.	.
.	.	.	8a-J	.	.
[1D-X	8A-L]	1r	1f	8ee-L]	.
.	8F	.	.	8a-	.
.	8G	.	.	8b-	.
.	8A-J	.	.	8ccJ	.
.	8B-L	.	.	8dd-XL	.
.	8c	.	.	8ee-	.
.	8d-X	.	.	8ff	.
.	8B-J	.	.	8dd-XJ	.
=66	=66	=66	=66	=66	=66
8D-L]	4G	0r	4c	4.b-	2ee-
8E-	.	.	.	.	.
8D-X	4E-	.	4g	.	.
8CJ	.	.	.	8cc	.
8BB-L	2r	.	4b-	8dd-XL	2gg
8AA-	.	.	.	8ccJ	.
8GG	.	.	4dd-X	4b-	.
8BB-J	.	.	.	.	.
8CL	1r	.	4ee-	4a-	2aa-
8D-X	.	.	.	.	.
8C	.	.	4a-	8ee-L	.
8BB-J	.	.	.	8dd-XJ	.
8AA-L	.	.	2r	4ee-	2ccc
8GG	.	.	.	.	.
8FF	.	.	.	[4aa-	.
8AA-J	.	.	.	.	.
!!LO:LB:g=original
=67	=67	=67	=67	=67	=67
8BBB-L	0r	0r	0r	8aa-L]	2ddn
8BB-	.	.	.	8ccc	.
8C	.	.	.	8bb-	.
8DJ	.	.	.	8aa-J	.
8E-L	.	.	.	8ggL	4r
8FJ	.	.	.	8ff	.
[4G	.	.	.	8ee-	4bb-
.	.	.	.	8ddnJ	.
8GL]	.	.	.	8ccL	2aan
8C	.	.	.	8gg-X	.
8D	.	.	.	8ff	.
8E-J	.	.	.	8ee-J	.
8FL	.	.	.	8ddL	2aa-X
8E-	.	.	.	8cc	.
8D	.	.	.	8b-	.
8FJ	.	.	.	8ccJ	.
=68	=68	=68	=68	=68	=68
4BB-	0r	0r	0r	8dd-XL	2gg
.	.	.	.	8ff-X	.
8CL	.	.	.	8ee-	.
8D-XJ	.	.	.	8dd-J	.
8E-L>	.	.	.	8ccL	[2gg-X
8D-	.	.	.	8b-	.
8C	.	.	.	8a-	.
8E-J	.	.	.	8b-J	.
4AA-	.	.	.	8cc-XL	4gg-]
.	.	.	.	8dd-X	.
8A-L	.	.	.	8cc-	4ff
8GJ	.	.	.	8b-J	.
4A-	.	.	.	8a-L	4ff-X
.	.	.	.	8g-X	.
4c-X	.	.	.	8f	4ee-
.	.	.	.	8g-J	.
=69	=69	=69	=69	=69	=69
[1B-	0r	0r	0r	8a-L	4dd
.	.	.	.	8cc-X	.
.	.	.	.	8b-	4b-
.	.	.	.	8a-J	.
.	.	.	.	8gnL	4ee-
.	.	.	.	8f	.
.	.	.	.	8e-	4aa-
.	.	.	.	8dnJ	.
8B-L]	.	.	.	4e-	2gg
8E-	.	.	.	.	.
8F	.	.	.	2ee-	.
8GJ	.	.	.	.	.
8A-L	.	.	.	.	2ff
8cn	.	.	.	.	.
8B-	.	.	.	8ddL	.
8A-J	.	.	.	8ccJ	.
=70	=70	=70	=70	=70	=70
8GL	0r	0r	0r	2.dd-X	4ee-
8F	.	.	.	.	.
8E-	.	.	.	.	4gg
8FJ	.	.	.	.	.
8GL	.	.	.	.	4bb-
8B-	.	.	.	.	.
8A-	.	.	.	8ccL	4ee-
8G-XJ	.	.	.	8b-J	.
8FL	.	.	.	2.cc-X	4aa-
8E-	.	.	.	.	.
8D-X	.	.	.	.	4ff
8E-J	.	.	.	.	.
8FL	.	.	.	.	4dd-X
8A-	.	.	.	.	.
8G-X	.	.	.	8b-L	8ee-L
8FJ	.	.	.	8anJ	8ffJ
!!LO:LB:g=original
=71	=71	=71	=71	=71	=71
8E-L	0r	0r	0r	2.b-	4gg-X
8D-X	.	.	.	.	.
8C	.	.	.	.	4ee-
8D-J	.	.	.	.	.
8E-L	.	.	.	.	[2cc
8G-X	.	.	.	.	.
8F	.	.	.	4an	.
8E-J	.	.	.	.	.
8D-XL	.	.	.	2.ff	8ccL]
8C	.	.	.	.	8ee-
8BB-	.	.	.	.	8dd-X
8CJ	.	.	.	.	8ccJ
8D-L	.	.	.	.	[2b-
8E-	.	.	.	.	.
8F	.	.	.	4a-	.
8DnJ	.	.	.	.	.
=72	=72	=72	=72	=72	=72
8E-L	1r	0r	0r	2.g-	4b-]
8D-X	.	.	.	.	.
8C	.	.	.	.	8ee-L
8D-J	.	.	.	.	8dd-XJ
8E-L	.	.	.	.	4cc
8F	.	.	.	.	.
8G-X	.	.	.	[4ee-	4b-
8E-J	.	.	.	.	.
[1F	2F	.	.	4ee-]	8anL
.	.	.	.	.	8g
.	.	.	.	4cc	8a
.	.	.	.	.	8b-J
.	2An	.	.	[2f	8ccL
.	.	.	.	.	8dd-X
.	.	.	.	.	8ee-
.	.	.	.	.	8ccJ
=73	=73	=73	=73	=73	=73
0F_	4B-	2B-	0r	4f]	8dd-XL
.	.	.	.	.	8ee-
.	4A-X	.	.	2ff	8dd-
.	.	.	.	.	8ccJ
.	2G	2d-X	.	.	8b-L
.	.	.	.	.	8cc
.	.	.	.	4een	8dd-
.	.	.	.	.	8b-J
.	8AnL	2f	.	4ee-	2.cc
.	8F	.	.	.	.
.	8G	.	.	4ddn	.
.	8AJ	.	.	.	.
.	8B-L	2g-X	.	2dd-X	.
.	8c	.	.	.	.
.	8d-X	.	.	.	4b-
.	8B-J	.	.	.	.
=74	=74	=74	=74	=74	=74
2F]	4f	2An	0r	[2cc	8ccL
.	.	.	.	.	8gg-X
.	4c	.	.	.	8ff
.	.	.	.	.	8ee-J
4r	8fL	4r	.	8ccL]	[2dd-X
.	8e-	.	.	8cc	.
4F	8d-X	4f	.	8b-	.
.	8cJ	.	.	8anJ	.
2.Gn	8B-L	2en	.	2b-	8dd-L]
.	8c	.	.	.	8ee-
.	8B-	.	.	.	8dd-X
.	8AnJ	.	.	.	8ccJ
.	4B-	2e-X	.	4r	8dd-L
.	.	.	.	.	8b-J
4An	[4c	.	.	8r	[4ff
.	.	.	.	8cc	.
!!LO:LB:g=original
=75	=75	=75	=75	=75	=75
4B-	4c]	2d	0r	[2f	8ffL]
.	.	.	.	.	8ee-
4A-X	4F	.	.	.	8ddn
.	.	.	.	.	8ccJ
4G	4B-	[2d-X	.	8f]	[2b-
.	.	.	.	4en	.
4F	4A-X	.	.	.	.
.	.	.	.	8f	.
2En	2G	4d-]	.	8gL	2b-]
.	.	.	.	8f	.
.	.	4c	.	8en	.
.	.	.	.	8fJ	.
[2E-X	4r	4c-X	.	2g-X/	8r
.	.	.	.	.	8ee-L
.	4B-	4B-	.	.	8ff
.	.	.	.	.	8gg-XJ
=76	=76	=76	=76	=76	=76
4E-]	4c	4An	0r	[2f	8ccL
.	.	.	.	.	8ee-
8FL	4r	4F	.	.	8dd-X
8E-J	.	.	.	.	8ccJ
4D-X	2r	4B-	.	8fL]	4b-
.	.	.	.	8f	.
4C	.	4e-	.	8e-X	4an
.	.	.	.	8fJ	.
2BB-	4r	2d-X	.	8g-XL>	2b-
.	.	.	.	8a-	.
.	2B-	.	.	8g-	.
.	.	.	.	8fJ	.
2C	.	2c	.	8e-L	2r
.	.	.	.	8f	.
.	[4A-X	.	.	8g-	.
.	.	.	.	8e-J	.
=77	=77	=77	=77	=77	=77
4Dn	4A-]	2B-	8r	4f	0r
.	.	.	8ccL	.	.
2E-	8GL	.	8b-	4r	.
.	8FJ	.	8a-J	.	.
.	[2G	[2c	8gL	2r	.
.	.	.	8a-	.	.
4En	.	.	8b-	.	.
.	.	.	8gJ	.	.
4F	2G]	2.c]	2a-	8r	.
.	.	.	.	8cL	.
4E-	.	.	.	8d-X	.
.	.	.	.	8e-J	.
2D-X	[2F	.	2r	8fL	.
.	.	.	.	8a-	.
.	.	4B-	.	8g	.
.	.	.	.	8fJ	.
=78	=78	=78	=78	=78	=78
2.C	2F]	4A-	8r	1cc	1r
.	.	.	8ccL	.	.
.	.	8GL	8b-	.	.
.	.	8FJ	8a-J	.	.
.	4En	[2G	8gL	.	.
.	.	.	8f	.	.
4BB-	4r	.	8en	.	.
.	.	.	8gJ	.	.
2AA-	1r	4G]	4c	1r	8r
.	.	.	.	.	8ddL
.	.	2F	4r	.	8een
.	.	.	.	.	8ffJ
2GG	.	.	2r	.	8ggL
.	.	.	.	.	8aa-
.	.	4En	.	.	8bb-
.	.	.	.	.	8ggJ
!!LO:LB:g=original
=79	=79	=79	=79	=79	=79
1FF	2r	4F	2r	8r	[1aa-
.	.	.	.	8ccL	.
.	.	4C	.	8dd	.
.	.	.	.	8eenJ	.
.	4r	[2D-X	8r	1ff	.
.	.	.	8ee-L	.	.
.	4AA-	.	8dd-X	.	.
.	.	.	8ccJ	.	.
1GG	[2BB-	8D-L]	[1b-	.	4aa-]
.	.	8Dn	.	.	.
.	.	8C	.	.	4aa-
.	.	8DJ	.	.	.
.	8BB-L]	[2E-	.	4ee-	[2gg
.	8BB-	.	.	.	.
.	8AA-	.	.	4dd-X	.
.	8BB-J	.	.	.	.
=80	=80	=80	=80	=80	=80
1AA-	[2C	8E-L]	4b-]	[1cc	2gg]
.	.	8En	.	.	.
.	.	8D	4b-	.	.
.	.	8EJ	.	.	.
.	8CL]	[2F	[2a-	.	4ff
.	8C	.	.	.	.
.	8BB-	.	.	.	4ee-
.	8CJ	.	.	.	.
1BB-	[2D-X	8FL]	2a-]	4cc]	[1dd-X
.	.	8F	.	.	.
.	.	8En	.	4cc	.
.	.	8FJ	.	.	.
.	8D-L]	[2G	4g	[2b-	.
.	8D-	.	.	.	.
.	8C	.	4f	.	.
.	8D-J	.	.	.	.
=81	=81	=81	=81	=81	=81
[1C	1E-	8GL]	2.e-	2b-]	2dd-]
.	.	8G	.	.	.
.	.	8F	.	.	.
.	.	8GJ	.	.	.
.	.	[2A-	.	2a-	2cc
.	.	.	8fL	.	.
.	.	.	8g-XJ	.	.
2C]	1D-X	2A-]	4f	1dd-X	2ff
.	.	.	8gL	.	.
.	.	.	8a-J	.	.
2BB-	.	4G	2b-	.	2gg
.	.	8A-L	.	.	.
.	.	8B-J	.	.	.
=82	=82	=82	=82	=82	=82
4AA-	2C	2E-	4cc	2.ee-	[1aa-
4GG	.	.	4b-	.	.
2FF	[2C-X	2AA-	4.a-	.	.
.	.	.	.	4ddn	.
.	.	.	8b-	.	.
1EE-	4C-]	[1E-	4cc-X	[1ee-	2aa-]
.	8BB-L	.	2dd-X	.	.
.	8AA-J	.	.	.	.
.	2BB-	.	.	.	2gg
.	.	.	8ccnL	.	.
.	.	.	8b-J	.	.
!!LO:LB:g=original
=83	=83	=83	=83	=83	=83
2AA-	2AA-	2E-]	4cc	4ee-]	4aa-
.	.	.	2cc	2ee-	4r
2r	2C	2r	.	.	2r
.	.	.	8b-L	8dd-XL	.
.	.	.	8a-J	8ccJ	.
1r	2E-	2E-	4g	4b-	4r
.	.	.	2b-	4r	2gg
.	2r	2G	.	2r	.
.	.	.	8a-L	.	8ffL
.	.	.	8gJ	.	8ee-J
=84	=84	=84	=84	=84	=84
0r	4r	8B-L	2f	0r	2dd
.	.	8c	.	.	.
.	2B-	8d	.	.	.
.	.	8B-J	.	.	.
.	.	8GL	2g	.	2een
.	.	8d-X	.	.	.
.	8A-L	8c	.	.	.
.	8GJ	8B-J	.	.	.
.	4A-	4c	4B-	.	8ffL
.	.	.	.	.	8gg
.	4F	2f	4cc	.	8aa-
.	.	.	.	.	8ffJ
.	2G	.	2bn	.	8ddL
.	.	.	.	.	8aa-
.	.	8e-L	.	.	8gg
.	.	8dJ	.	.	8ffJ
=85	=85	=85	=85	=85	=85
0r	8A-L	4.c	8ccL	0r	[2ee-
.	8GJ	.	8b-X	.	.
.	2F	.	8a-	.	.
.	.	8B-	8gJ	.	.
.	.	4A-	4f	.	8ee-L]
.	.	.	.	.	8dd
.	8E-L	4f	4a-	.	8cc
.	8DJ	.	.	.	8bnJ
.	4E-	[2c	[2g	.	8ccL
.	.	.	.	.	8b-
.	4En	.	.	.	8a-
.	.	.	.	.	8gJ
.	4F	8cL]	8gL]	.	2a-
.	.	8e-X	8g	.	.
.	[4f	8d	8f	.	.
.	.	8cJ	8e-J	.	.
=86	=86	=86	=86	=86	=86
4r	8fL]	8BnL	8dL	2g	2g
.	8e-	8c	8c	.	.
[4G	8d	8d	8Bn	.	.
.	8cJ	8e-J	8AnJ	.	.
8GL]	4d	8fL	4G	2bn	2r
8F	.	8g	.	.	.
8E-	4r	8a-X	4d	.	.
8DJ	.	8fJ	.	.	.
8E-L	4r	4g	4c	2cc	4r
8D	.	.	.	.	.
8C	2G	4r	4e-	.	[4cc
8BBnJ	.	.	.	.	.
[2C	.	2r	4g	2ee-	8ccL<]
.	.	.	.	.	8b-
.	8AnL	.	4r	.	8an
.	8B-XJ	.	.	.	8gJ
!!LO:LB:g=original
=87	=87	=87	=87	=87	=87
8CL>]	2An	1r	4r	2f#X	[2dd
8E-	.	.	.	.	.
8D	.	.	4d	.	.
8CJ	.	.	.	.	.
8BB-XL	4D	.	[2g	4r	8ddL]
8AAn	.	.	.	.	8cc
8GG	4r	.	.	4dd	8b-
8FFJ	.	.	.	.	8anJ
4EEn	1r	2r	8gL]	2cc#X	4g
.	.	.	8b-	.	.
4En	.	.	8an	.	4r
.	.	.	8gJ	.	.
4F#X	.	8r	[2a	2ccn	2r
.	.	8gL	.	.	.
4D	.	8f#X	.	.	.
.	.	8enJ	.	.	.
=88	=88	=88	=88	=88	=88
2G	2r	8dL	4a]	2bn	0r
.	.	8c	.	.	.
.	.	8Bn	8gL	.	.
.	.	8AnJ	8f#XJ	.	.
2GG	8r	4G	4.g	[2b-X	.
.	8FL	.	.	.	.
.	8E-	4B-X	.	.	.
.	8DJ	.	8fn	.	.
8AAnL	4.C	[2c	8e-L	4b-]	.
8BB-J	.	.	8dJ	.	.
2C	.	.	4e-	4an	.
.	8D	.	.	.	.
.	2E-	8cL]	4c	4a-X	.
.	.	8F#X	.	.	.
8BB-L	.	8G	4r	4g	.
8CJ	.	8AnJ	.	.	.
=89	=89	=89	=89	=89	=89
2D	4D	4B-	1r	4f#X	8r
.	.	.	.	.	8ee-L
.	4F#X	4An	.	4d	8dd
.	.	.	.	.	8ccJ
[2E-	4G	4G	.	4g	8b-L
.	.	.	.	.	8an
.	4r	4An	.	4cc	8g
.	.	.	.	.	8f#XJ
8E-L]	2r	4B-	4r	2b-	4g
8D	.	.	.	.	.
8C	.	4r	4dd	.	2gg
8BB-J	.	.	.	.	.
4C	4r	4r	4ee-	2an	.
4D	4An	4d	8ddL	.	4ff#X
.	.	.	8ccJ	.	.
=90	=90	=90	=90	=90	=90
4G	4B-	4d	4b-	4g	4gg
4r	4r	4r	4r	4dd	4r
2r	4r	4r	2g	4b-	2r
.	4G	4B-	.	4ee-	.
1r	2An	4c	2f#X	4an	1r
.	.	8dL	.	8bnL	.
.	.	8e-J	.	8ccJ	.
.	2Bn	8dL	2fn	2dd	.
.	.	8cJ	.	.	.
.	.	[4d	.	.	.
!!LO:LB:g=original
=91	=91	=91	=91	=91	=91
0r	4c	4d]	2en	4g	0r
.	8CL	4c	.	8anL	.
.	8DJ	.	.	8bnJ	.
.	8E-XL	2r	4r	2cc	.
.	8CJ	.	.	.	.
.	[4A-X/	.	4e-X	.	.
.	4A-/]	2r	4d	2bn	.
.	8GL	.	4g	.	.
.	8FJ	.	.	.	.
.	4En	4r	4c	2b-X	.
.	4C	4G	8dL	.	.
.	.	.	8enJ	.	.
=92	=92	=92	=92	=92	=92
0r	4F	2An	4f	2an	4r
.	4r	.	4c	.	4ff
.	2F	2Bn	8dL	4a-X	4dd
.	.	.	8cJ	.	.
.	.	.	4d	4g	4gg
.	2En	2.c	2G	2g	4cc
.	.	.	.	.	8ddL
.	.	.	.	.	8eenJ
.	2E-X	.	4An	4f	[2ff
.	.	8B-L	4F	8gL	.
.	.	8cJ	.	8anJ	.
=93	=93	=93	=93	=93	=93
0r	4D	4F	2f	2b-	4ff]
.	4C	8GL	.	.	8ee-XL
.	.	8AnJ	.	.	8ffJ
.	4D	2B-	2r	2f	4b-
.	4BB-	.	.	.	8ccL
.	.	.	.	.	8ddJ
.	4C	2An	4r	2cc	(4ee-
.	8DL	.	4an	.	16ffLL
.	.	.	.	.	16ee-
.	8E-J	.	.	.	16dd
.	.	.	.	.	16ee-JJ
.	8DL	2A-X	4f	4r	4ff
.	8CJ	.	.	.	.
.	4D	.	4b-	[4b-	16ggLL
.	.	.	.	.	16ff
.	.	.	.	.	16ee-
.	.	.	.	.	16ffJJ)
=94	=94	=94	=94	=94	=94
2r	2.E-	4G	4e-	4b-]	4gg
.	.	4r	8fL	8a-XL	4r
.	.	.	8gJ	8b-J	.
2E-	.	2r	[2a-X	4cc	2r
.	4A-	.	.	8dd-XL	.
.	.	.	.	8ccJ	.
2D	4F	1r	4a-]	2.b-	1r
.	4B-	.	8gL	.	.
.	.	.	8fJ	.	.
2D-X	4E-	.	[2g	.	.
.	8FL	.	.	4f	.
.	8GJ	.	.	.	.
!!LO:LB:g=original
=95	=95	=95	=95	=95	=95
2C	4A-	4r	4g]	4en	2r
.	4G	4c	8fL	2cc	.
.	.	.	8enJ	.	.
2F	4F	4A-	4f	.	4r
.	4A-	4d-X	4r	8b-L	[4dd-X
.	.	.	.	8a-XJ	.
2En	4B-	4G	1r	4g	4dd-]
.	8cL	8A-L	.	4cc	8ccL
.	8d-XJ	8B-J	.	.	8b-J
2E-X	4c	2c	.	4f	4an
.	4An	.	.	8gL	[4ff
.	.	.	.	8anJ	.
=96	=96	=96	=96	=96	=96
2D	4F	2.B-	4r	2b-	4ff]
.	8GL	.	4f	.	4ddn
.	8AnJ	.	.	.	.
2G	4B-	.	4d	2r	4b-
.	8AL	8cL	4g	.	4ee-
.	8B-J	8dnJ	.	.	.
2F#X	4c	4e-	4c	4r	4an
.	4An	4d	8dL	2d	8bnL
.	.	.	8e-J	.	8ccJ
2Fn	4A-X	4r	4f	.	4dd
.	8B-L	[4B-	8enL	8gL	[4dd-X
.	8A-J	.	8fJ	8a-XJ	.
=97	=97	=97	=97	=97	=97
4En	4G	4B-]	4g	4b-	4dd-]
4F	4A-	4f	4c	2a-	2cc
4D	4F	4r	2f	.	.
4G	4B-	4d-X	.	[4g	[4b-X
4C	2G	2c	4en	4g]	4b-]
8DL	.	.	8fL	2cc	8a-L
8EnJ	.	.	8gJ	.	8gJ
[2F	4r	4r	2f	.	4a-
.	4A-	[4d	.	8ddL	4ff
.	.	.	.	8ccJ	.
=98	=98	=98	=98	=98	=98
4F]	2G	4d]	2.g	4bn	4dd
4E-X	.	8cL	.	4cc	4gg
.	.	8BnJ	.	.	.
[2A-	2r	[2c	.	4r	4cc
.	.	.	8fL	8a-XL	8ddL
.	.	.	8gJ	8b-XJ	8eenJ
4A-]	1r	2c]	2.a-	[2cc	2.ff
8GL	.	.	.	.	.
8FJ	.	.	.	.	.
2c	.	2r	.	8ccL]	.
.	.	.	.	8dd	.
.	.	.	8gL	8cc	8ee-L
.	.	.	8fJ	8bnJ	8ddJ
!!LO:LB:g=original
=99	=99	=99	=99	=99	=99
2C	4r	2r	4g	4cc	4ee-
.	4A-	.	4d	4f	4bn
2E-	4G	4r	4c	4g	4cc
.	[4c	4e-	4r	4r	4r
2G	4c]	4d	1r	2r	4r
.	4Bn	2g	.	.	4ee-
2A-	2c	.	.	4r	4cc
.	.	4f	.	4a-	[4ff
=100	=100	=100	=100	=100	=100
2BBn	4r	4g	0r	4g	4ff]
.	4Bn	4r	.	2dd	8ggL
.	.	.	.	.	8ffJ
4r	4c	2r	.	.	[2ee-
4G	4G	.	.	8ccL	.
.	.	.	.	8bnJ	.
2F#X	2.An	4r	.	2.cc	4ee-]
.	.	4c	.	.	4ee-
2Fn	.	4d	.	.	[2dd
.	4d	4An	.	4ff	.
=101	=101	=101	=101	=101	=101
2En	4G	4Bn	2r	4gg	4dd]
.	4B-X	2G	.	2b-X	4dd-X
[2E-X	4c	.	4r	.	[2cc
.	4G	4c	4e-	4b-	.
4E-]	4An	4F	4c	4an	4cc]
4D	2F	2A-X/	2f	2a-X	4cc
4D-X	.	.	.	.	4bn
4C	4A-X	4E-	4e-	4a-	4cc
=102	=102	=102	=102	=102	=102
4BBn	2D	4G	2d	2.g	4ddn
4GG	.	4F	.	.	4bn
4C	[2C	4E-	4e-	.	[2cc
4FF	.	4D	4f	4a-	.
2GG	2C]	8E-L	2e-	2g	2cc]
.	.	8FJ	.	.	.
.	.	2.G	.	.	.
2GG	8DL	.	2d	2g	2bn
.	8E-J	.	.	.	.
.	4F	.	.	.	.
=103	=103	=103	=103	=103	=103
0C	0En	0G	0c	0g	0cc
==	==	==	==	==	==
*-	*-	*-	*-	*-	*-
!!!system-decoration: [(s1,s2,s3,s4,s5,s6)]
!!!RDF**kern: > = above
!!!RDF**kern: < = below
!!!URL-pdf: https://s9.imslp.org/files/imglnks/usimg/5/55/IMSLP10042-BWV1079-b.pdf#page=12 @{SMS}
!!!URL-youtube: https://www.youtube.com/watch?v=KYouXtuk0T8 Malinowski
!!!URL-youtube: https://www.youtube.com/watch?v=fjxKy3pP41w&t=10s Netherlands Bach Society (Leo van Doeselaar, fortepiano)
!!!URL-youtube: https://www.youtube.com/watch?v=AVeZAPi0GcA Organ (Ben Kerswell)
!!!SMS: Bach-Gesellschaft Ausgabe, Band 31.2 Leipzig: Breitkopf und Härtel, 1885. Plate B.W. XXXI(2).
!!!PED: Alfred Döffel
!!!PED-ODT: 1821-1905
!!!ENC: Craig Stuart Sapp
!!!END: 2024/03/21
!!!EED: Craig Stuart Sapp
!!!EEV: 2024/03/28
!!!title: @{OPR} (@{SCA}), @{OTL}
!!!filter-modern: modori -m | autostem -r
